htmlcsshonors/static/img/logo.white.svg

<svg width="27" height="17" viewBox="0 0 27 17" xmlns="http://www.w3.org/2000/svg"><title>logo</title><path d="M0 8h1v1H0V8zm10-6h1v1h-1V2zm0 12h1v1h-1v-1zM3 5h1v7H3V5zM2 6h1v5H2V6zM1 7h1v3H1V7zm8 6h1v3H9v-3zM9 1h1v3H9V1zM5 9h1v5H5V9zm1 1h1v5H6v-5zm1 1h1v5H7v-5zm1 1h1v5H8v-5zM4 4h1v9H4V4zm1-1h1v5H5V3zm1-1h1v5H6V2zm1-1h1v5H7V1zm1-1h1v5H8V0zm19 8h-1v1h1V8zM17 2h-1v1h1V2zm0 12h-1v1h1v-1zm8-8h-1v5h1V6zm-1-1h-1v7h1V5zm2 2h-1v3h1V7zm-8 6h-1v3h1v-3zm0-12h-1v3h1V1zm4 8h-1v5h1V9zm-1 1h-1v5h1v-5zm-1 1h-1v5h1v-5zm-1 1h-1v5h1v-5zm4-8h-1v9h1V4zm-1-1h-1v5h1V3zm-1-1h-1v5h1V2zm-1-1h-1v5h1V1zm-1-1h-1v5h1V0z" fill="#FFF" fill-rule="evenodd"/></svg>

<?xml version="1.0" encoding="UTF-8" standalone="no"?>
<svg width="27px" height="17px" viewBox="0 0 27 17" version="1.1" xmlns="http://www.w3.org/2000/svg" xmlns:xlink="http://www.w3.org/1999/xlink">
    <!-- Generator: Sketch 39.1 (31720) - http://www.bohemiancoding.com/sketch -->
    <title>logo</title>
    <desc>Created with Sketch.</desc>
    <defs></defs>
    <g id="logo" stroke="none" stroke-width="1" fill="none" fill-rule="evenodd">
        <g fill="#FFFFFF">
            <path d="M0,8 L1,8 L1,9 L0,9 L0,8 Z M10,2 L11,2 L11,3 L10,3 L10,2 Z M10,14 L11,14 L11,15 L10,15 L10,14 Z M3,5 L4,5 L4,12 L3,12 L3,5 Z M2,6 L3,6 L3,11 L2,11 L2,6 Z M1,7 L2,7 L2,10 L1,10 L1,7 Z M9,13 L10,13 L10,16 L9,16 L9,13 Z M9,1 L10,1 L10,4 L9,4 L9,1 Z M5,9 L6,9 L6,14 L5,14 L5,9 Z M6,10 L7,10 L7,15 L6,15 L6,10 Z M7,11 L8,11 L8,16 L7,16 L7,11 Z M8,12 L9,12 L9,17 L8,17 L8,12 Z M4,4 L5,4 L5,13 L4,13 L4,4 Z M5,3 L6,3 L6,8 L5,8 L5,3 Z M6,2 L7,2 L7,7 L6,7 L6,2 Z M7,1 L8,1 L8,6 L7,6 L7,1 Z M8,0 L9,0 L9,5 L8,5 L8,0 Z M27,8 L26,8 L26,9 L27,9 L27,8 Z M17,2 L16,2 L16,3 L17,3 L17,2 Z M17,14 L16,14 L16,15 L17,15 L17,14 Z M25,6 L24,6 L24,11 L25,11 L25,6 Z M24,5 L23,5 L23,12 L24,12 L24,5 Z M26,7 L25,7 L25,10 L26,10 L26,7 Z M18,13 L17,13 L17,16 L18,16 L18,13 Z M18,1 L17,1 L17,4 L18,4 L18,1 Z M22,9 L21,9 L21,14 L22,14 L22,9 Z M21,10 L20,10 L20,15 L21,15 L21,10 Z M20,11 L19,11 L19,16 L20,16 L20,11 Z M19,12 L18,12 L18,17 L19,17 L19,12 Z M23,4 L22,4 L22,13 L23,13 L23,4 Z M22,3 L21,3 L21,8 L22,8 L22,3 Z M21,2 L20,2 L20,7 L21,7 L21,2 Z M20,1 L19,1 L19,6 L20,6 L20,1 Z M19,0 L18,0 L18,5 L19,5 L19,0 Z"></path>
        </g>
    </g>
</svg>
